X:1
T:Title
L:1/8
M:4/4
K:Eb
V:1 treble nm="Grand Piano"
V:1
 z4 z[Q:1/4=100] CCC | G2 G2 FE G2 | D4- DDDE | F3 F ED F2 | E4- ECCD | E2 EC DEFG | A4- A A2 A | %7
 A2 FF G2 A2 | G4- GCCC | G2 G2 FEGG | D4- DDDE | F2 F2 EDFF | E4- ECCD | E2 EC DEFG | A4- A A2 A | %15
 A2 FF G2 A2 |[M:5/8] G- G3 z |[M:3/8] GGG |[M:4/4] c2 cB d>c Bc | B4- BAAc | B2 A2 G4- | %21
 G4- GGGG | c2 cB d>c Bc | B4- BAAc | B2 A2 G4- | G6 z2 |] %26

